packages/icon/src/svg/phone.icon.svg

<svg width="24" height="24" viewBox="0 0 24 24" fill="none" xmlns="http://www.w3.org/2000/svg">
<path fill-rule="evenodd" clip-rule="evenodd" d="M7 1C5.89543 1 5 1.89543 5 3V21C5 22.1046 5.89543 23 7 23H17C18.1046 23 19 22.1046 19 21V3C19 1.89543 18.1046 1 17 1H7ZM7.5 4C7.22386 4 7 4.22386 7 4.5V18.5C7 18.7761 7.22386 19 7.5 19H16.5C16.7761 19 17 18.7761 17 18.5V4.5C17 4.22386 16.7761 4 16.5 4H7.5ZM11 2.75C11 2.61193 11.1119 2.5 11.25 2.5H12.75C12.8881 2.5 13 2.61193 13 2.75C13 2.88807 12.8881 3 12.75 3H11.25C11.1119 3 11 2.88807 11 2.75ZM12 20C11.4477 20 11 20.4477 11 21C11 21.5523 11.4477 22 12 22C12.5523 22 13 21.5523 13 21C13 20.4477 12.5523 20 12 20Z" fill="white"/>
</svg>

<svg aria-label="phone icon" viewBox="0 0 24 24"><path fill-rule="evenodd" clip-rule="evenodd" d="M7 1a2 2 0 00-2 2v18a2 2 0 002 2h10a2 2 0 002-2V3a2 2 0 00-2-2H7zm.5 3a.5.5 0 00-.5.5v14a.5.5 0 00.5.5h9a.5.5 0 00.5-.5v-14a.5.5 0 00-.5-.5h-9zM11 2.75a.25.25 0 01.25-.25h1.5a.25.25 0 110 .5h-1.5a.25.25 0 01-.25-.25zM12 20a1 1 0 100 2 1 1 0 000-2z"/></svg>
